X: 25039
T: Maids In The Meadow, The
R: reel
M: 4/4
K: Dmajor
d3B =cAGB|Addc dfag|f2ed =cAGE|EG=cG EDDA|
d3B =cAGB|Addc dfag|f2ed =cAGE|EG=cG EDDe|
fddc d2 cd|eaag efge|fddc d2 cd|eaag edde|
fddc d2 cd|eaag efge|fddc dAcd|eaag efge|

